assets/logos/calvin-klein.svg

<svg width="135" height="22" viewBox="0 0 135 22" fill="none" xmlns="http://www.w3.org/2000/svg">
<path fill-rule="evenodd" clip-rule="evenodd" d="M10.8561 19.8576C6.13582 19.8576 2.10678 15.5763 2.10678 10.9065C2.10678 6.25402 6.05149 1.88767 10.8222 1.88767C13.9582 1.88767 16.2163 3.40486 18.0543 5.78193H20.3636C19.6724 4.53429 18.9307 3.38828 17.8013 2.49454C15.8625 0.926894 13.3506 0 10.8561 0C4.8716 0 0 4.93936 0 10.8899C0 16.8571 4.93936 21.746 10.8899 21.746C13.3175 21.746 15.6945 20.853 17.5995 19.3524C18.7967 18.3916 19.6392 17.144 20.4486 15.8624H18.1393C16.318 18.2395 13.9921 19.8576 10.8561 19.8576ZM34.7939 8.479C33.3444 6.60791 31.3717 5.42803 28.9276 5.42803C24.5447 5.42803 20.9373 8.9857 20.9373 13.3686C20.9373 17.7508 24.562 21.3417 28.9276 21.3417C31.4734 21.3417 33.2428 20.2793 34.7939 18.3238V20.987H36.6989V5.7985H34.7939V8.479ZM28.8267 19.588C25.4716 19.588 22.825 16.6719 22.825 13.3852C22.825 10.1144 25.455 7.18164 28.8267 7.18164C32.1811 7.18164 34.7939 10.1151 34.7939 13.3852C34.7939 16.6719 32.1638 19.588 28.8267 19.588ZM39.0082 20.987H41.0486V0.437502H39.0082V20.987ZM48.7521 18.5761L43.5936 5.7985H41.5705L47.7575 20.987H49.8138L55.9842 5.7985H53.9949L48.7521 18.5761ZM56.8268 20.987H58.8665V5.7985H56.8268V20.987ZM56.8268 3.84308H58.8665V0.437502H56.8268V3.84308ZM67.6497 5.42731C65.7274 5.42731 64.3623 6.43925 63.0981 7.78779V5.7985H61.2097V20.987H63.2156V11.7318C63.199 9.28769 65.2214 7.18091 67.6828 7.18091C70.7669 7.18091 72.318 9.86141 72.318 12.6262V20.9878H74.2057V12.6262C74.2064 8.68153 71.8978 5.42731 67.6497 5.42731ZM93.1378 0.437502L83.866 12.2212V0.437502H81.8601V20.987H83.866V15.3399L86.4961 12.0698L93.1883 20.987H95.7347L87.7768 10.451L95.7347 0.437502H93.1378ZM96.4757 20.987H98.4657V0.437502H96.4757V20.987ZM114.935 9.62501C113.553 7.04541 110.788 5.42731 107.871 5.42731C103.523 5.42731 99.8467 9.052 99.8467 13.4011C99.8467 17.7833 103.556 21.3409 107.906 21.3409C109.978 21.3409 112.02 20.5149 113.519 19.0821C114.43 18.2222 114.969 17.1432 115.457 16.0138H113.317C112.237 18.1213 110.332 19.5873 107.87 19.5873C106.371 19.5873 104.904 18.9804 103.792 17.9519C102.645 16.9075 102.139 15.6253 101.92 14.1088H115.93C115.93 12.5246 115.711 11.0074 114.935 9.62501ZM101.988 12.356C102.596 9.50752 104.837 7.18091 107.906 7.18091C110.485 7.18091 113.25 8.76586 113.857 12.356H101.988ZM117.414 20.987H119.419V5.7985H117.414V20.987ZM117.414 3.91084H119.419V0.437502H117.414V3.91084ZM128.237 5.42731C126.28 5.42731 124.915 6.43925 123.633 7.78779V5.7985H121.712V20.987H123.735V11.7318C123.718 9.27111 125.792 7.18091 128.269 7.18091C131.338 7.18091 132.957 9.86141 132.957 12.6262V20.9878H134.845V12.6262C134.845 8.68153 132.501 5.42731 128.237 5.42731Z" fill="white"/>
</svg>

<svg xmlns="http://www.w3.org/2000/svg" width="135" height="22" fill="none" viewBox="0 0 135 22"><path fill="#fff" fill-rule="evenodd" d="M10.856 19.858c-4.72 0-8.75-4.282-8.75-8.952 0-4.652 3.945-9.018 8.716-9.018 3.136 0 5.394 1.517 7.232 3.894h2.31c-.692-1.248-1.433-2.394-2.563-3.287C15.863.927 13.351 0 10.856 0 4.872 0 0 4.94 0 10.89c0 5.967 4.94 10.856 10.89 10.856 2.428 0 4.804-.893 6.71-2.394 1.197-.96 2.04-2.208 2.849-3.49h-2.31c-1.821 2.377-4.147 3.996-7.283 3.996M34.794 8.479c-1.45-1.871-3.422-3.051-5.866-3.051-4.383 0-7.99 3.558-7.99 7.94s3.624 7.974 7.99 7.974c2.545 0 4.315-1.063 5.866-3.018v2.663h1.905V5.799h-1.905zm-5.967 11.109c-3.355 0-6.002-2.916-6.002-6.203 0-3.27 2.63-6.203 6.002-6.203 3.354 0 5.967 2.933 5.967 6.203 0 3.287-2.63 6.203-5.967 6.203m10.181 1.399h2.04V.437h-2.04zm9.744-2.41-5.158-12.78H41.57l6.187 15.189h2.056l6.17-15.188h-1.99zm8.075 2.41h2.04V5.799h-2.04zm0-17.144h2.04V.438h-2.04zM67.65 5.427c-1.923 0-3.288 1.012-4.552 2.36V5.799H61.21v15.189h2.006v-9.255c-.017-2.444 2.005-4.551 4.467-4.551 3.084 0 4.635 2.68 4.635 5.445v8.362h1.888v-8.362c0-3.944-2.308-7.199-6.556-7.199M93.138.437l-9.272 11.784V.438H81.86v20.549h2.006V15.34l2.63-3.27 6.692 8.917h2.547l-7.958-10.536L95.735.438zm3.338 20.55h1.99V.437h-1.99zm18.459-11.362c-1.382-2.58-4.147-4.198-7.064-4.198-4.348 0-8.024 3.625-8.024 7.974 0 4.382 3.709 7.94 8.059 7.94a8.2 8.2 0 0 0 5.613-2.259c.911-.86 1.45-1.939 1.938-3.068h-2.14c-1.08 2.107-2.985 3.573-5.447 3.573-1.499 0-2.966-.607-4.078-1.635-1.147-1.045-1.653-2.327-1.872-3.843h14.01c0-1.584-.219-3.102-.995-4.484m-12.947 2.731c.608-2.848 2.849-5.175 5.918-5.175 2.579 0 5.344 1.585 5.951 5.175zm15.426 8.631h2.005V5.799h-2.005zm0-17.076h2.005V.438h-2.005zm10.823 1.516c-1.957 0-3.322 1.012-4.604 2.36V5.799h-1.921v15.189h2.023v-9.255c-.017-2.46 2.057-4.551 4.534-4.551 3.069 0 4.688 2.68 4.688 5.445v8.362h1.888v-8.362c0-3.944-2.344-7.199-6.608-7.199" clip-rule="evenodd"/></svg>
